dist/img/conditions/conditions_1.svg

<svg width="44" height="44" viewBox="0 0 44 44" fill="none" xmlns="http://www.w3.org/2000/svg">
<path d="M22 25.6666H23.8333C25.85 25.6666 27.5 24.0166 27.5 22V3.66663H11C8.25 3.66663 5.84835 5.18827 4.60168 7.42494" stroke="url(#paint0_linear_439_3698)" stroke-width="2" stroke-linecap="round" stroke-linejoin="round"/>
<path d="M3.66667 31.1666C3.66667 34.21 6.12333 36.6666 9.16667 36.6666H11C11 34.65 12.65 33 14.6667 33C16.6833 33 18.3333 34.65 18.3333 36.6666H25.6667C25.6667 34.65 27.3167 33 29.3333 33C31.35 33 33 34.65 33 36.6666H34.8333C37.8767 36.6666 40.3333 34.21 40.3333 31.1666V25.6666H34.8333C33.825 25.6666 33 24.8416 33 23.8333V18.3333C33 17.325 33.825 16.5 34.8333 16.5H37.1983L34.0634 11.0183C33.4034 9.88164 32.1934 9.16663 30.8734 9.16663H27.5V22C27.5 24.0166 25.85 25.6666 23.8333 25.6666H22" stroke="url(#paint1_linear_439_3698)" stroke-width="2" stroke-linecap="round" stroke-linejoin="round"/>
<path d="M14.6667 40.3333C16.6917 40.3333 18.3333 38.6917 18.3333 36.6667C18.3333 34.6416 16.6917 33 14.6667 33C12.6416 33 11 34.6416 11 36.6667C11 38.6917 12.6416 40.3333 14.6667 40.3333Z" stroke="url(#paint2_linear_439_3698)" stroke-width="2" stroke-linecap="round" stroke-linejoin="round"/>
<path d="M29.3333 40.3333C31.3584 40.3333 33 38.6917 33 36.6667C33 34.6416 31.3584 33 29.3333 33C27.3083 33 25.6667 34.6416 25.6667 36.6667C25.6667 38.6917 27.3083 40.3333 29.3333 40.3333Z" stroke="url(#paint3_linear_439_3698)" stroke-width="2" stroke-linecap="round" stroke-linejoin="round"/>
<path d="M40.3333 22V25.6667H34.8333C33.825 25.6667 33 24.8417 33 23.8333V18.3333C33 17.325 33.825 16.5 34.8333 16.5H37.1983L40.3333 22Z" stroke="url(#paint4_linear_439_3698)" stroke-width="2" stroke-linecap="round" stroke-linejoin="round"/>
<path d="M3.66667 14.6666H14.6667" stroke="url(#paint5_linear_439_3698)" stroke-width="2" stroke-linecap="round" stroke-linejoin="round"/>
<path d="M3.66667 20.1666H11" stroke="url(#paint6_linear_439_3698)" stroke-width="2" stroke-linecap="round" stroke-linejoin="round"/>
<path d="M3.66667 25.6666H7.33333" stroke="url(#paint7_linear_439_3698)" stroke-width="2" stroke-linecap="round" stroke-linejoin="round"/>
<defs>
<linearGradient id="paint0_linear_439_3698" x1="4.60168" y1="14.6666" x2="27.5" y2="14.6666" gradientUnits="userSpaceOnUse">
<stop stop-color="#B68C74"/>
<stop offset="1" stop-color="#865F46"/>
</linearGradient>
<linearGradient id="paint1_linear_439_3698" x1="3.66667" y1="22.9166" x2="40.3333" y2="22.9166" gradientUnits="userSpaceOnUse">
<stop stop-color="#B68C74"/>
<stop offset="1" stop-color="#865F46"/>
</linearGradient>
<linearGradient id="paint2_linear_439_3698" x1="11" y1="36.6667" x2="18.3333" y2="36.6667" gradientUnits="userSpaceOnUse">
<stop stop-color="#B68C74"/>
<stop offset="1" stop-color="#865F46"/>
</linearGradient>
<linearGradient id="paint3_linear_439_3698" x1="25.6667" y1="36.6667" x2="33" y2="36.6667" gradientUnits="userSpaceOnUse">
<stop stop-color="#B68C74"/>
<stop offset="1" stop-color="#865F46"/>
</linearGradient>
<linearGradient id="paint4_linear_439_3698" x1="33" y1="21.0833" x2="40.3333" y2="21.0833" gradientUnits="userSpaceOnUse">
<stop stop-color="#B68C74"/>
<stop offset="1" stop-color="#865F46"/>
</linearGradient>
<linearGradient id="paint5_linear_439_3698" x1="3.66667" y1="15.1666" x2="14.6667" y2="15.1666" gradientUnits="userSpaceOnUse">
<stop stop-color="#B68C74"/>
<stop offset="1" stop-color="#865F46"/>
</linearGradient>
<linearGradient id="paint6_linear_439_3698" x1="3.66667" y1="20.6666" x2="11" y2="20.6666" gradientUnits="userSpaceOnUse">
<stop stop-color="#B68C74"/>
<stop offset="1" stop-color="#865F46"/>
</linearGradient>
<linearGradient id="paint7_linear_439_3698" x1="3.66667" y1="26.1666" x2="7.33333" y2="26.1666" gradientUnits="userSpaceOnUse">
<stop stop-color="#B68C74"/>
<stop offset="1" stop-color="#865F46"/>
</linearGradient>
</defs>
</svg>

<svg width="44" height="44" viewBox="0 0 44 44" fill="none" xmlns="http://www.w3.org/2000/svg"><path d="M22 25.667h1.833A3.677 3.677 0 0027.5 22V3.667H11a7.326 7.326 0 00-6.398 3.758" stroke="url(#paint0_linear_439_3698)" stroke-width="2" stroke-linecap="round" stroke-linejoin="round"/><path d="M3.667 31.167c0 3.043 2.456 5.5 5.5 5.5H11A3.677 3.677 0 0114.667 33a3.677 3.677 0 013.666 3.667h7.334A3.677 3.677 0 0129.333 33 3.677 3.677 0 0133 36.667h1.833c3.044 0 5.5-2.457 5.5-5.5v-5.5h-5.5A1.839 1.839 0 0133 23.833v-5.5c0-1.008.825-1.833 1.833-1.833h2.365l-3.135-5.482a3.697 3.697 0 00-3.19-1.851H27.5V22a3.677 3.677 0 01-3.667 3.667H22" stroke="url(#paint1_linear_439_3698)" stroke-width="2" stroke-linecap="round" stroke-linejoin="round"/><path d="M14.667 40.333a3.667 3.667 0 100-7.333 3.667 3.667 0 000 7.333z" stroke="url(#paint2_linear_439_3698)" stroke-width="2" stroke-linecap="round" stroke-linejoin="round"/><path d="M29.333 40.333a3.667 3.667 0 100-7.333 3.667 3.667 0 000 7.333z" stroke="url(#paint3_linear_439_3698)" stroke-width="2" stroke-linecap="round" stroke-linejoin="round"/><path d="M40.333 22v3.667h-5.5A1.839 1.839 0 0133 23.833v-5.5c0-1.008.825-1.833 1.833-1.833h2.365l3.135 5.5z" stroke="url(#paint4_linear_439_3698)" stroke-width="2" stroke-linecap="round" stroke-linejoin="round"/><path d="M3.667 14.667h11" stroke="url(#paint5_linear_439_3698)" stroke-width="2" stroke-linecap="round" stroke-linejoin="round"/><path d="M3.667 20.167H11" stroke="url(#paint6_linear_439_3698)" stroke-width="2" stroke-linecap="round" stroke-linejoin="round"/><path d="M3.667 25.667h3.666" stroke="url(#paint7_linear_439_3698)" stroke-width="2" stroke-linecap="round" stroke-linejoin="round"/><defs><linearGradient id="paint0_linear_439_3698" x1="4.602" y1="14.667" x2="27.5" y2="14.667" gradientUnits="userSpaceOnUse"><stop stop-color="#B68C74"/><stop offset="1" stop-color="#865F46"/></linearGradient><linearGradient id="paint1_linear_439_3698" x1="3.667" y1="22.917" x2="40.333" y2="22.917" gradientUnits="userSpaceOnUse"><stop stop-color="#B68C74"/><stop offset="1" stop-color="#865F46"/></linearGradient><linearGradient id="paint2_linear_439_3698" x1="11" y1="36.667" x2="18.333" y2="36.667" gradientUnits="userSpaceOnUse"><stop stop-color="#B68C74"/><stop offset="1" stop-color="#865F46"/></linearGradient><linearGradient id="paint3_linear_439_3698" x1="25.667" y1="36.667" x2="33" y2="36.667" gradientUnits="userSpaceOnUse"><stop stop-color="#B68C74"/><stop offset="1" stop-color="#865F46"/></linearGradient><linearGradient id="paint4_linear_439_3698" x1="33" y1="21.083" x2="40.333" y2="21.083" gradientUnits="userSpaceOnUse"><stop stop-color="#B68C74"/><stop offset="1" stop-color="#865F46"/></linearGradient><linearGradient id="paint5_linear_439_3698" x1="3.667" y1="15.167" x2="14.667" y2="15.167" gradientUnits="userSpaceOnUse"><stop stop-color="#B68C74"/><stop offset="1" stop-color="#865F46"/></linearGradient><linearGradient id="paint6_linear_439_3698" x1="3.667" y1="20.667" x2="11" y2="20.667" gradientUnits="userSpaceOnUse"><stop stop-color="#B68C74"/><stop offset="1" stop-color="#865F46"/></linearGradient><linearGradient id="paint7_linear_439_3698" x1="3.667" y1="26.167" x2="7.333" y2="26.167" gradientUnits="userSpaceOnUse"><stop stop-color="#B68C74"/><stop offset="1" stop-color="#865F46"/></linearGradient></defs></svg>
